X: 1
T: Jamie Gow, Crathie Bellman
C: Joseph Lowe
R: jig
Z: 2006 John Chambers <jc:trillian.mit.edu>
B: Pinewoods Alternates
M: 6/8
L: 1/8
K: G
D \
| "G"G2A B2c | dgd Bcd | "C"cBA "G"BAG | "D7"FAA A2B \
| "G"G2A B2c | dgd Bcd | "Am"cBc "D7"Adc | "G"BGG G2 :|
f \
| "G"g3 "D7"def | "G"gdc BAG | "C"cBA "G"BAG | "D7"FAA A2f \
| "G"g3 "D7"def | "G"gdc BAG | "Am"cBc "D7"Adc | "G"BGG G2 |]
f \
| "G"g3 "D7"def | "G"gdc BAG | "C"cBA "G"BAG | "D7"FAA A2a \
| "G"bag "D"agf | "Em"gfe "D"def | "C"gfe "D7"def | "G"gdB G2 |]
